build/images/icons/students-icon.svg

<svg width="14" height="14" viewBox="0 0 14 14" fill="none" xmlns="http://www.w3.org/2000/svg">
<g clip-path="url(#clip0_47_5132)">
<path d="M13.9791 13.4615L13.2971 11.3927C13.7122 11.1948 13.9998 10.7711 13.9998 10.2814C13.9998 9.74674 13.6568 9.29087 13.1795 9.12156V4.38147L13.7724 4.08621C13.9115 4.01698 13.9995 3.87509 13.9998 3.71972C14 3.56436 13.9125 3.4222 13.7737 3.3525L7.1839 0.0439657C7.0681 -0.014167 6.93163 -0.014167 6.81583 0.0439657L0.226133 3.3525C0.0872816 3.4222 -0.000245576 3.56439 5.17586e-07 3.71972C0.000246611 3.87506 0.0882933 4.01698 0.227363 4.08621L2.46093 5.19836V7.82054C2.46093 7.93839 2.51163 8.05053 2.60006 8.12841C2.68091 8.19958 4.60741 9.87129 6.99991 9.87129C9.3924 9.87129 11.3189 8.19958 11.3998 8.12841C11.4882 8.05053 11.5389 7.93839 11.5389 7.82054V5.19836L12.3592 4.7899V9.12153C11.8818 9.29084 11.5389 9.74674 11.5389 10.2814C11.5389 10.7711 11.8265 11.1947 12.2415 11.3927L11.5595 13.4615C11.472 13.7269 11.6702 14.0001 11.949 14.0001H13.5896C13.869 14.0001 14.0664 13.7263 13.9791 13.4615ZM10.7186 7.62536C10.2618 7.98067 8.74121 9.05101 6.99991 9.05101C5.25833 9.05101 3.73747 7.98037 3.28122 7.62542V5.60682L6.81709 7.36743C6.87464 7.39609 6.93729 7.41044 6.99991 7.41044C7.06252 7.41044 7.12517 7.39611 7.18273 7.36743L10.7186 5.60682L10.7186 7.62536ZM12.5161 13.1798L12.7693 12.4117L13.0225 13.1798H12.5161ZM12.7693 10.6916C12.5432 10.6916 12.3592 10.5076 12.3592 10.2814C12.3592 10.0553 12.5432 9.87129 12.7693 9.87129C12.9955 9.87129 13.1795 10.0553 13.1795 10.2814C13.1795 10.5076 12.9955 10.6916 12.7693 10.6916Z" fill="#52BFFF"/>
</g>
<defs>
<clipPath id="clip0_47_5132">
<rect width="14" height="14" fill="white"/>
</clipPath>
</defs>
</svg>

<svg width="14" height="14" fill="none" xmlns="http://www.w3.org/2000/svg"><g clip-path="url(#a)"><path d="m13.98 13.461-.683-2.068a1.232 1.232 0 0 0-.117-2.271v-4.74l.592-.296a.41.41 0 0 0 .002-.734L7.184.045a.41.41 0 0 0-.368 0L.226 3.352a.41.41 0 0 0 .001.734l2.234 1.112v2.623c0 .117.05.23.14.307C2.68 8.2 4.606 9.871 7 9.871c2.392 0 4.319-1.671 4.4-1.743a.41.41 0 0 0 .139-.307V5.198l.82-.408v4.332a1.232 1.232 0 0 0-.118 2.271l-.681 2.068a.41.41 0 0 0 .389.54h1.64a.41.41 0 0 0 .39-.54Zm-3.261-5.836c-.457.356-1.978 1.426-3.72 1.426-1.74 0-3.262-1.07-3.718-1.426V5.607l3.536 1.76a.41.41 0 0 0 .366 0l3.536-1.76v2.018Zm1.797 5.555.253-.768.254.768h-.507Zm.253-2.488a.41.41 0 1 1 .001-.822.41.41 0 0 1 0 .822Z" fill="#52BFFF"/></g><defs><clipPath id="a"><path fill="#fff" d="M0 0h14v14H0z"/></clipPath></defs></svg>
